X: 12512
T: Farewell To Gurteen
R: jig
M: 6/8
K: Dmajor
F2 E FDD|def ecA|F3 DEF|G2A BAG|
F2 E FDD|def ecA|fef gec|ABc d2 A:|
dcd f3|dfa afa|dfa adf|e=ce gfe|
dcd f3|dfa afd|ABA GFE|FDD D3:|

